X: 1
T:Calum Iain
M:C
L:1/8
Q:80
C:Roderick MacDonald
S:Reel
K:HP
{g}B3/2e/2{A}e3/2f/2{a}g3/2f/2{g}e3/2d/2|
{g}B3/2e/2{A}e3/2f/2{a}g2{g}f3/2e/2|
{g}A3/2d/2{c}d3/2e/2{g}f3/2e/2{g}d3/2B/2|  !
{g}A3/2d/2{c}d3/2e/2{g}f2{g}e3/2d/2|
{g}B3/2d/2{c}d3/2f/2{a}g3/2f/2{g}e3/2d/2|
{g}B3/2e/2{A}e3/2f/2{a}g2{g}f3/2g/2|  !
a3/2f/2{a}g3/2e/2{g}f3/2d/2{g}e3/2d/2|
{g}B3/2e/2{A}e3/2f/2{g}e2g2|]
{g}B3/2d/2{c}d3/2g/2{g}B2{g}e3/2g/2|  !
{g}B3/2e/2{A}e3/2f/2{a}g2{g}f3/2e/2|
{g}A3/2d/2{c}d3/2f/2{g}c2{g}d3/2f/2|
{g}A3/2d/2{c}d3/2e/2{g}f2{g}e3/2d/2|  !
{g}B3/2e/2{A}e3/2g/2{g}B2{g}e3/2g/2|
{g}B3/2e/2{A}e3/2f/2{a}g2{g}f3/2g/2|
a3/2f/2{a}g3/2e/2{g}f3/2d/2{g}e3/2d/2|  !
{g}B3/2e/2{A}e3/2f/2{g}e2g2|] |:
{g}B3/2e/2g3/2B/2{g}e3/2g/2B3/2e/2|
{a}g3/2B/2f3/2A/2{g}d3/2f/2A3/2d/2|  !
{g}f3/2B/2e3/2g/2{g}B3/2e/2g3/2A/2|
{g}B3/2e/2{A}e3/2f/2{g}e2g2:|
{g}B2{g}e3/2g/2{g}B3/2e/2g3/2e/2|  !
{g}B2{g}e3/2f/2{a}g2{g}f3/2e/2|
{g}A3/2d/2{c}d3/2e/2{g}f3/2e/2{g}d3/2B/2|
{g}A3/2d/2{c}d3/2e/2{g}f2{g}e3/2d/2|  !
{g}B3/2e/2g3/2B/2{g}e3/2g/2B3/2e/2|
{g}B2{g}e3/2f/2{a}g2{g}f3/2g/2|
a3/2f/2{a}g3/2e/2{g}f3/2d/2{g}e3/2d/2|  !
{g}B3/2e/2{A}e3/2f/2{g}e2g2|]
